!!!SOCIAL_FUNCTION:	songs of social dance
!!!PDT:	1936
!!!OTL: No_57_Song_in_Honor_of_Eagle_Nest.krn
!!!REG: Oklahoma and Montana
!!!LANG: Tone
!!!LING_GROUP: Algonquin
**kern
*staff1
=1-
*clefG2
*k[f#c#g#]
*M6/8
8b\L
8b\
8b\J
8b\L
8b\
16b\L
16b\JJ
=2
8a/L
8a/
8a/J
[8a/L
(16a/L]
16f#/JJ)
8r
=3
8a/L
8a/
8a/J
8b/L
8a/
16f#/L
16f#/JJ
=4
2e/
4r
=5
8a/L
[8f#/J
4f#/]
8a/L
8a/J
=6
*M5/8
8b/L
8a/
8f#/J
4r
=7
*M6/8
8f#/L
8f#/
8f#/J
8a/L
8f#/
16f#/L
16f#/JJ
=8
[4.e/
8e/L_
16e/L]
16c#/JJ
8r
=9
*M5/8
8e/L
8e/
8e/
8f#/
8e/J
=10
[4d/
16d/LL]
16A/J
8A/J
8r
=11
*M6/8
8B/L
8B/
8B/J
8d/L
8B/
16B/L
16B/JJ
=12
[4.A/
8A/L_
16A/L]
16F#/JJ
8r
=13
8A/L
8A/
8A/J
8B/L
8A/
16F#/L
16F#/JJ
=14
*M9/8
4.E/
2r
8r
8a/
=15
*M6/8
4f#/
8f#/
4.a/
=16
8b/L
8a/
8f#/J
4r
8e/
=17
4f#/
8f#/
8a/L
8f#/
16f#/L
16f#/JJ
=18
[4.e/
(16e/LL]
16c#/JJ)
8r
8c#/
=19
*M5/8
4e/
8e/L
8f#/
8e/J
=20
[4.d/
(16d/LL]
16A/JJ)
8r
=21
*M6/8
8B/L
8B/
8B/J
8d/L
8B/
16B/L
16B/JJ
=22
*M5/8
[4.A/
(16A/LL]
16F#/JJ)
8r
=23
*M6/8
8A/L
8A/
8A/J
8B/L
8A/
16F#/L
16F#/JJ
=24
2E/
4r
==
*-
